icons/svg/screen-rotation.svg

<svg xmlns="http://www.w3.org/2000/svg" version="1.1" baseProfile="full" width="24" height="24" viewBox="0 0 24.00 24.00" xml:space="preserve"><path fill="#000" fill-opacity="1" stroke-linejoin="round" d="M7.52 21.48C4.25 19.94 1.91 16.76 1.55 13H.05C.56 19.16 5.71 24 12 24l.66-.03-3.81-3.81m5.98 1.03L2.81 9.17l6.36-6.36 12.02 12.02M10.23 1.75c-.59-.59-1.54-.59-2.12 0L1.75 8.11c-.59.59-.59 1.54 0 2.12l12.02 12.02c.59.59 1.54.59 2.12 0l6.36-6.36c.59-.59.59-1.54 0-2.12L10.23 1.75zm6.25.77c3.27 1.55 5.61 4.72 5.97 8.48h1.5C23.44 4.84 18.29 0 12 0l-.66.03 3.81 3.81 1.33-1.32z"/></svg>

﻿<?xml version="1.0" encoding="utf-8"?>
<!DOCTYPE svg PUBLIC "-//W3C//DTD SVG 1.1//EN" "http://www.w3.org/Graphics/SVG/1.1/DTD/svg11.dtd">
<svg xmlns="http://www.w3.org/2000/svg" xmlns:xlink="http://www.w3.org/1999/xlink" version="1.1" baseProfile="full" width="24" height="24" viewBox="0 0 24.00 24.00" enable-background="new 0 0 24.00 24.00" xml:space="preserve">
	<path fill="#000000" fill-opacity="1" stroke-linejoin="round" d="M 7.52,21.48C 4.25,19.94 1.91,16.76 1.55,13L 0.05,13C 0.56,19.16 5.71,24 12,24L 12.66,23.97L 8.85,20.16M 14.83,21.19L 2.81,9.17L 9.17,2.81L 21.19,14.83M 10.23,1.75C 9.64,1.16 8.69,1.16 8.11,1.75L 1.75,8.11C 1.16,8.7 1.16,9.65 1.75,10.23L 13.77,22.25C 14.36,22.84 15.31,22.84 15.89,22.25L 22.25,15.89C 22.84,15.3 22.84,14.35 22.25,13.77L 10.23,1.75 Z M 16.48,2.52C 19.75,4.07 22.09,7.24 22.45,11L 23.95,11C 23.44,4.84 18.29,1.90735e-006 12,1.90735e-006L 11.34,0.0300045L 15.15,3.84L 16.48,2.52 Z "/>
</svg>
